X:1
T:Styall, LM
T:William Statham, 1889
T:Styall, LM
T:Public Domain
C:William Statham, 1889
Z:Public Domain
%%score ( 1 2 ) ( 3 4 )
L:1/8
M:4/4
K:Eb
V:1 treble 
V:2 treble 
V:3 bass 
V:4 bass 
V:1
 [GB]2 | [FB]2 [DA]2 [EG]2 [EG]2 | [CF]2 [B,D]2 E2 [B,F]2 | [B,G]2 [EB]2 [E=A]2 [DB]2 | %4
 [Ec]2 [C=A]2 [DB]2 [GB]2 | [^Fd]2 [Dd]2 [DB]2 [DB]2 | [Ee]2 [Ee]2 [Ec]2 [Ac]2 | %7
 [Gc]2 [=EG]2 [FA]2 [_EG]2 | [EF]2 [DF]2 E2 |] %9
V:2
 x2 | x8 | x4 E2 x2 | x8 | x8 | x8 | x8 | x8 | x4 E2 |] %9
V:3
 [E,B,]2 | [D,B,]2 [B,,B,]2 [E,B,]2 [C,E,]2 | [A,,A,]2 [B,,A,]2 [C,G,]2 [D,F,]2 | %3
 B,2 z D, [C,C]2 [B,,F,]2 | [E,G,]2 F,2 [B,,F,]2 [E,G,]2 | [D,=A,]2 [^F,A,]2 [G,B,]2 [=F,_A,]2 | %6
 [E,G,]2 [G,B,]2 A,2 [F,A,]2 | [=E,C]2 [C,C]2 [F,C]2 [A,,C]2 | [B,,F,]2 [B,,A,]2 [E,G,]2 |] %9
V:4
 x2 | x8 | x8 | E,3 G,2 x3 | x2 F,2 x4 | x8 | x4 A,2 x2 | x8 | x6 |] %9

